img/phone_form.svg

<svg width="14" height="14" viewBox="0 0 14 14" fill="none" xmlns="http://www.w3.org/2000/svg">
<path d="M11.9958 9.12256L10.1576 8.91269C9.7162 8.86203 9.28199 9.01401 8.97081 9.32519L7.63924 10.6568C5.59123 9.61466 3.91229 7.94296 2.8702 5.8877L4.209 4.54888C4.52018 4.2377 4.67216 3.80349 4.6215 3.36205L4.41163 1.53836C4.32479 0.807445 3.70966 0.257446 2.97151 0.257446H1.71955C0.90179 0.257446 0.221532 0.937708 0.27219 1.75547C0.655739 7.93572 5.59847 12.8712 11.7714 13.2548C12.5892 13.3054 13.2695 12.6252 13.2695 11.8074V10.5555C13.2767 9.82453 12.7267 9.2094 11.9958 9.12256Z" fill="#212121"/>
</svg>

<svg width="14" height="14" fill="none" xmlns="http://www.w3.org/2000/svg"><path d="M11.996 9.123l-1.838-.21a1.44 1.44 0 00-1.187.412l-1.332 1.332a10.888 10.888 0 01-4.769-4.77L4.21 4.55a1.44 1.44 0 00.413-1.187l-.21-1.824a1.448 1.448 0 00-1.44-1.28H1.72C.902.257.222.937.272 1.754c.384 6.18 5.326 11.116 11.5 11.5.817.05 1.498-.63 1.498-1.448v-1.252a1.434 1.434 0 00-1.274-1.432z" fill="#212121"/></svg>
